X: 13914
T: Foxhunter, The
R: slip jig
M: 9/8
K: Dmajor
|:"D"(FGF)F2D"Em"G2E|"D"(FGF)F2D"A"E2"D"D|(FGF)F2D"G"G2B|"D"(AFD)D2F"A"E2"D"D:|
|:"G"(B=cB)(BAG)"D"(FGA)|"Em"B2EE2FG2B|"D"(AB^c)"Bm"(dcB)"A"(ABc)|"D"d2DD2G"A"E2"D"D:|
|:"D"(fgf)f2d"Em"g2e|"D"(fgf)f2d"A"e2"D"d|(fgf)f2d"G"g2b|"D"(afd)d2f"A"e2"D"d:|
|:"G"(gfe)(d=cB)"D"(AGF)|"Em"B2EE2FG2B|"D"(AB^c)"Bm"(dcB)"A"(ABc)|"D"d2DD2F"A"E2"D"D:|
"D"D2A A2G ABc|D2A AGE "C"G2E|"D"D2A A2G ABc|"G" BAG AGE"Em" G2E|
"D"D2A A2G ABc|D2A AGE "C"G2E|"D"D2A A2G ABc|"G"dBG AGE "Em"G2E||
"G"BAB dBG "D"ABc|"G"BAB dBG "C"c2A|"G"BAB dBG "D"ABc|"G" BAG AGE"Em" G2E|
"G"BAB dBG"D" ABc|"G" B2c dBG "C"c2A|"G"def"Em" gfe "G"dBG|BAG "Em"AGE G2E||
|:"D" d2d dAG"C" FED|"D" d2d dAF"C" G2E|"D" ABc dAG"C" FGA|=cBc E2F G2E:|
"D" d2g fdf"A" ece|"D" d2g fdf"A" g2e|"D" d2g fdf"A" ece|"C" =cBc E2F G2E|
"D" d2g fdf"A" ece|"D" d2g fdf "A"g2e|"D" afd gec"A" d2B|"C" =cBc E2F G2E||"D"D9|

